X:19
T:In the Moor among the Heather. THO2.019
O:London
M:C|
L:1/8
Q:1/2=90
B:Thompson's Compleat Coll. of 200 Favourite Country Dances, vol.2,1765
Z:Transcribed and edited by Fynn Titford-Mock, 2007
Z:abc's:AK/Fiddler's Companion/VMP 2009
K:G
DEGB GEGE|EAAB ABAG|GABd dega|begB ABAG:|
|:dega fagd|eaab abag|bage dega|begB ABAG:|

